icons/svg/recurring_12.svg

<svg width="12" height="12" viewBox="0 0 12 12" fill="none" xmlns="http://www.w3.org/2000/svg">
<path fill-rule="evenodd" clip-rule="evenodd" d="M11 4.4995C11 4.5685 10.986 4.6345 10.96 4.6945C10.91 4.8135 10.813 4.9095 10.694 4.9605C10.634 4.9855 10.569 4.9995 10.5 4.9995H7.5C7.225 4.9995 7 4.7745 7 4.4995C7 4.2255 7.225 3.9995 7.5 3.9995H9.454C8.739 2.7635 7.442 1.9995 6 1.9995C3.956 1.9995 2.217 3.53056 1.994 5.55956C1.966 5.81556 1.749 6.00456 1.49699 6.00456C1.479 6.00456 1.461 6.00356 1.443 6.00156C1.168 5.97156 0.969999 5.72556 0.999999 5.45056C1.278 2.91356 3.445 0.9995 6 0.9995C7.606 0.9995 9.066 1.7575 10 3.0125V1.4995C10 1.2255 10.225 0.9995 10.5 0.9995C10.775 0.9995 11 1.2255 11 1.4995V4.4995ZM1.003 7.50556C1.003 7.43656 1.017 7.37056 1.043 7.31056C1.093 7.19156 1.19 7.09556 1.309 7.04456C1.369 7.01956 1.434 7.00556 1.503 7.00556H4.503C4.778 7.00556 5.003 7.23056 5.003 7.50556C5.003 7.77956 4.778 8.00556 4.503 8.00556H2.549C3.264 9.24156 4.561 10.0056 6.003 10.0056C8.047 10.0056 9.786 8.4745 10.009 6.4455C10.037 6.1895 10.254 6.0005 10.506 6.0005C10.524 6.0005 10.542 6.0015 10.56 6.0035C10.835 6.0335 11.033 6.2795 11.003 6.5545C10.725 9.0915 8.558 11.0056 6.003 11.0056C4.397 11.0056 2.937 10.2476 2.003 8.99256V10.5056C2.003 10.7796 1.778 11.0056 1.503 11.0056C1.228 11.0056 1.003 10.7796 1.003 10.5056V7.50556Z" fill="#121212"/>
</svg>

<svg width="12" height="12" viewBox="0 0 12 12" xmlns="http://www.w3.org/2000/svg"><title>meetings/recurring_12</title><path d="M10.499 6.5122c.27.062.438.329.377.599-.52 2.29-2.525 3.889-4.876 3.889-1.606 0-3.067-.758-4-2.013l0 1.513c0 .275-.225.5-.5.5-.275 0-.5-.225-.5-.5l0-3c0-.275.225-.5.5-.5l3 0c.275 0 .5.225.5.5 0 .275-.225.5-.5.5l-1.954 0c.715 1.236 2.011 2 3.454 2 1.881 0 3.485-1.28 3.901-3.111.061-.269.329-.438.598-.377zM11 4.4995c0 .069-.014.135-.04.195-.05.119-.147.215-.266.266-.06.025-.125.039-.194.039l-3 0c-.275 0-.5-.225-.5-.5 0-.274.225-.5.5-.5l1.954 0c-.715-1.236-2.012-2-3.454-2-2.044 0-3.753 1.53-3.976 3.559-.028.256-.245.445-.497.445-.018 0-.036-.001-.054-.003-.275-.03-.473-.276-.443-.551.278-2.537 2.415-4.45 4.97-4.45 1.606 0 3.066.758 4 2.013l0-1.513c0-.274.225-.5.5-.5.275 0 .5.226.5.5l0 3z" fill="#000" fill-rule="evenodd"/></svg>
